!!!COM: Anon.
!!!OTL: Turquino
!! Maria Cadilla de Martinez,
!! Juegos Y Canciones Infantiles de Puerto Rico
!! Talleres Graficos, Cas Baldrich, Brau 93, San Juan, P.R.
!! 1940.  Derechos reservados de la Autora
!! page 139
!! Allegretto
**kern
*clefG2
*k[b-]
*M3/4
{8c
8c
=
4f
4f},
{8a
8f
=
4g
4g},
{8b-
8dd
=
4cc
4a
8b-
8g
=
4f
4f},
{8c
8c
=
4f
4f},
{8a
8f
=
4g
4g
8dd
8ff
=
4cc
4a
8cc
8g
=
4g
4f}
==
*-
